X: 23
T: Now pray don't be Stingy
%%VWML:Button1818-2292c-p12-0
F:http://www.vwml.org/record/Button1818/2292c/p12
B: "Le Sylphe, Twenty Four Country Dances with Figures for the Year 1818", Button & Whitaker, p.12 #1
F: http://www.vwml.org/browse/browse-collections-dance-tune-books/browse-button1818
Z: 2014 John Chambers <jc:trillian.mit.edu>
N: The Figures by Mr WILSON.
M: 6/8
L: 1/8
K: F
% - - - - - - - - - - - - - - - - - - - - - - - - - - - - -
[|\
f2a c2e | f2a c2e | f2a c'2a | bab g2e |\
f2a c2e | f2a d2b | a2f cde | f3- f3 |]
[|\
e2c g3 | fef def | e2c c=Bc | d=BG Ggf |\
e2c g3 | fef def | ege fd=B | c_ba gf"_D.C."e |]
% - - - - - - - - - - Dance description - - - - - - - - - -
W: SINGLE FIGURE        (Tune play'd straight thro' & Da Capo)
W:
W:Cast off 2 Cu: & back again |. hands across with 2d Cu: & back
W:again |. down the mid: up again & turn your partner |. .
W:
W: DOUBLE FIGURE        (Tune play'd twice thro' with Da Capo)
W:
W:Set & change places with 2d Cu: set & back again |.
W:chain figure 6 round |. down the mid:
W:up again lead thro' the top Cu: |. turn corners |.
W:the double triangle |. & lead outsides |. .
W:
%%sep 1 1 450
T: Poor Dickey
%R: jig
B: "Le Sylphe, Twenty Four Country Dances with Figures for the Year 1818", Button & Whitaker, p.12 #2
F: http://www.vwml.org/browse/browse-collections-dance-tune-books/browse-button1818
Z: 2014 John Chambers <jc:trillian.mit.edu>
N: The Figures by Mr WILSON.
M: 6/8
L: 1/8
K: D
% - - - - - - - - - - - - - - - - - - - - - - - - - - - - -
[|\
f2d e2c | d2B AFD | B2d g2f | fed ceA |\
f2d e2c | d2B AFD | B2b a2g | fge d3 |]
[|\
f2d a2e | dcd cBA | f2d e2a | ^gab a3 |\
B2b afd | cc2d ecA | B2d A2f | ede d3 |]
% - - - - - - - - - - Dance description - - - - - - - - - -
W: SINGLE FIGURE        (Tune play'd straight thro')
W:
W:Hands 6 round & back again |. swing round
W:the 2d Cu: & turn your partner |. .
W:
W: DOUBLE FIGURE        (Each strain repeated)
W:
W:The 3 Ladies lead round 3 Gent: |.
W:3 Gent: lead round 3 Ladies |:
W:cross over one Cu: half figure round 3d Cu: |.
W:& turn corners |:
W:
%%sep 1 1 450
